X:40
T: Rattling Bog
R: polka
M: 2/2
K: Dmaj
L: 1/4
d/e/ | "D" f2 f>e | "G" dB B>B | "D" Ad d/c/d/e/ | "A" fee |
d/e/ | "D" f2 f>e | "G" dB B>B | "D" Aa af       | "A" ed "D" d/A/ :|
|: d/e/ | "D" fd "A" ed/e/ | "D" fd "A" ed/e/ | "D" fa af | "A" ed e |
   d/e/ | "D" fd "A" ed/e/ | "D" fd "A" ed/e/ | "D" fa af | "A" ed "D" d/A/ :|



